z_dist/img/icons/shopping-cart.svg

<svg width="25" height="25" viewBox="0 0 25 25" fill="none" xmlns="http://www.w3.org/2000/svg">
<g clip-path="url(#clip0_100_37)">
<path d="M3.81655 5.48063L0 1.66525L1.66525 0L5.48063 3.81655H23.4183C23.6017 3.81654 23.7826 3.85941 23.9466 3.94173C24.1105 4.02406 24.2529 4.14356 24.3624 4.2907C24.4719 4.43785 24.5456 4.60856 24.5774 4.78921C24.6092 4.96986 24.5984 5.15545 24.5457 5.33117L21.7213 14.746C21.6486 14.9886 21.4997 15.2012 21.2966 15.3524C21.0935 15.5035 20.847 15.5852 20.5938 15.5851H6.17027V17.9389H19.1157V20.2926H4.99341C4.68129 20.2926 4.38195 20.1686 4.16125 19.9479C3.94054 19.7272 3.81655 19.4278 3.81655 19.1157V5.48063ZM6.17027 6.17027V13.2314H19.7183L21.8366 6.17027H6.17027ZM5.58184 25C5.11366 25 4.66465 24.814 4.33359 24.483C4.00254 24.1519 3.81655 23.7029 3.81655 23.2347C3.81655 22.7665 4.00254 22.3175 4.33359 21.9865C4.66465 21.6554 5.11366 21.4694 5.58184 21.4694C6.05002 21.4694 6.49903 21.6554 6.83009 21.9865C7.16114 22.3175 7.34713 22.7665 7.34713 23.2347C7.34713 23.7029 7.16114 24.1519 6.83009 24.483C6.49903 24.814 6.05002 25 5.58184 25ZM19.7041 25C19.236 25 18.7869 24.814 18.4559 24.483C18.1248 24.1519 17.9388 23.7029 17.9388 23.2347C17.9388 22.7665 18.1248 22.3175 18.4559 21.9865C18.7869 21.6554 19.236 21.4694 19.7041 21.4694C20.1723 21.4694 20.6213 21.6554 20.9524 21.9865C21.2834 22.3175 21.4694 22.7665 21.4694 23.2347C21.4694 23.7029 21.2834 24.1519 20.9524 24.483C20.6213 24.814 20.1723 25 19.7041 25Z" fill="white"/>
</g>
<defs>
<clipPath id="clip0_100_37">
<rect width="25" height="25" fill="white"/>
</clipPath>
</defs>
</svg>

<svg width="25" height="25" fill="none" xmlns="http://www.w3.org/2000/svg"><g clip-path="url(#clip0_100_37)"><path d="M3.817 5.48L0 1.666 1.665 0l3.816 3.817h17.937a1.177 1.177 0 011.128 1.514l-2.825 9.415a1.177 1.177 0 01-1.127.84H6.17v2.353h12.946v2.354H4.993a1.177 1.177 0 01-1.176-1.177V5.48zm2.353.69v7.061h13.548l2.119-7.06H6.17zM5.582 25a1.766 1.766 0 110-3.531 1.766 1.766 0 010 3.531zm14.122 0a1.765 1.765 0 110-3.53 1.765 1.765 0 010 3.53z" fill="#fff"/></g><defs><clipPath id="clip0_100_37"><path fill="#fff" d="M0 0h25v25H0z"/></clipPath></defs></svg>
